X:17
T:The Wedding of Lochan McGraw
% NFF Book 2006
S:collected from Joe Yates, Sofala, NSW
S:collected by John Meredith & Chris Sullivan
Z:arranged by Greg O'Leary
H:Joe learned this tune from his father George Yates.
O:Australia, NSW, Sofala
R:Jig
M:6/8
L:1/8
K:D
|:"Em"BBB EFG|BBB EFG|"D"ABA AGF|AGF EFG|
"C"BAE BEE|"Em"BAG "D"FGA|"Bm"B=cB BAB|1 "Em"GEE E3:|2 GEE E2 B||
"Em"Eee ede|"D"fed "Em"e2e|"G"dBB BAB|dBB Bcd|
"Em"eee ede|fee edc|"G"dBB BAB|"Em"GEE E3|
"Em"EEE G2F|"D"FDD D2F|"Em"EEE e2d|"G"dBB B2 g|
"G"ddd "C"ed=c|B=cA G2 A|"Em"BBB B2A|GEE E3||


